X:1
T:Langdans
A:Suedschweden
S:Am Geigentag 1995 in Graz von einer Schwedin gelernt
Z:abc transcription Simon Wascher
F:http://simonwascher.info/
M:2/4
L:1/8
K:G dorian
GA |\
B2Bc AB | G3A Bc | d2f2e2 | d4GA |
B2Bc AB | G3A Bc | d2f2e2 | d4 :|
|: d2 |\
d2BB BB | B2d2f2 | e2cc cc | c2e2f2 |
d3cBA | G2B2B2 | A2F2F2 | G4 :|
